X: 40828
T: Tralee Gaol
R: polka
M: 2/4
K: Adorian
|:B/d/|eA Bd|e/f/e/d/ B>d|eA AB/A/|G>A B/c/d|
eA AB/d/|ed Bd|e/g/e/d/ gB|BA A:|
|:d|ea zb|ag ge|dB GB|e/d/c/B/ Gd|
ea ag/a/|b>a ge|dB gB|A2 A:|

